X:1
T:Se la doglia
T:Se la doglia
T:Claudio Saracini
T:Source : Le seconde Musische per cantar e sonar---Venetia---A.Vincenti---1620. Editor : André Vierendeels (24/11/15).
T:Notes : Original clefs : C1, F4 Editorial accidentals above the staff Dedicated to his brother Cesare ("fratello carissimo")
T:-natural
C:Claudio Saracini
%%score 1 2
L:1/8
Q:1/4=85
M:4/4
K:C
V:1 treble nm="Soprano" snm="S"
V:2 bass nm="BC" snm="BC"
V:1
 dd d4 AA | F8- | F4 E4 | BB B4 DD | E8 | D8 | dd d4 BA | B8 | A8 | f6 ed | c6 e2 | d8 | c8 | %13
w: Se la do- glia'e'l mar-|ti-|* re|non puo far- mi mo-|ri-|re,-|non puo far- mi mo-|ri-|re,|mo- stra mi'al-|men' A-|mo-|re,|
 z eBc ddcB | A4 z4 | z B^FG AAGF | E6 G2 | A8 | G8 :: B8 | c4- ^c2 cc | d6 ^G2 | ^G8 | z A A4 E2 | %24
w: co- me di gio- ia'è di pia-|cer,|co- me di gio- ia'è di pia-|cer si|mo-|re.|Voi,|voi _ che la|mor- te|mia,|ne gl'oc- chi'ha-|
 ^F4 F4 | z ABc d4- | d4 c4 | B8 | A8 | z EFG A^CDE | G6 F2 | E8 | D8 | BB d4 GG | ^G4 G4 | %35
w: ve- te,|e la mia vi-|* ta|sie-|te,|e la mia vi- ta'e la mia|vi- ta|sie-|te,|di- te, di- te ch'io|mo- ra,|
 BB e4 AA | A4 A4 | z E E4 D2 | ^F4 F4 | z BBc d3 c | e4 e4 | ee ^c2 cc d2 | z8 | BB ^G2 GG A2- | %44
w: di- te, di- te ch'io|mo- ra|à tut- te|l'ho- re|ch'io son con- ten- to|po- i,|mil- le vol- te mo- rir,||mil- le vol- te mo- rir|
 A4 d4 | G6 E2 | A8 | G8 :| %48
w: _ ma'in|brac- cio|vo-|i.|
V:2
 G,,4 ^F,,4 | B,,6 A,,2 | ^G,,8 | ^G,2 ^G,,2 A,,4- | A,,8 | D,8 | D,4 E,4- | E,8 | A,,8 | %9
 F,,4 E,4- | E,8 | G,4 G,,4 | C,8 | C,2 G,,6 | D,D,A,,B,, C,C,B,,A,, | G,,G, D,E, F,F,E,D, | %16
 C,4 B,,4 | D,8 | G,,8 :: G,,8 | C,2 B,,2 A,,4 | ^F,4 E,4- | E,4 E,,4 | ^C,8 | D,8- | D,8 | E,8- | %27
 E,8 | A,,8 | A,,8 | G,,4 A,,4- | A,,8 | D,8 | G,,8 | E,8- | E,4 ^C,4- | C,4 ^C,4 | ^C,8 | D,8 | %39
 G,,8 | C,8 | A,6 ^F,2 | E,E, ^C,2 C,C, D,2 | E,6 ^C,2 | ^C,4 B,,4 | C,2 D,2 E,2 C,2 | D,8 | %47
 G,,8 :| %48

